awards/half-time.svg

<svg width="50" height="50" xmlns="http://www.w3.org/2000/svg"><path d="M50 25c0 13.807-11.193 25-25 25S0 38.807 0 25 11.193 0 25 0s25 11.193 25 25zm-26.282-2.167H9.168v3.49h14.55zm-4.83 5.61h-4.87v3.51h4.87zm0-11.16h-4.87v3.49h4.87zm20.441 11.42h-3.66l-.2 1.69h-4.03l-.02-.07 3.06-3.24c1.074-1.133 1.934-2.1 2.58-2.9.647-.793 1.11-1.543 1.39-2.25.287-.7.43-1.467.43-2.3 0-1.227-.283-2.297-.85-3.21-.56-.913-1.36-1.623-2.4-2.13-1.046-.5-2.296-.75-3.75-.75-1.46 0-2.726.297-3.8.89-1.08.593-1.903 1.393-2.47 2.4-.573 1.013-.846 2.147-.82 3.4l.03.08h4.77c0-.913.187-1.643.56-2.19.374-.54.944-.81 1.71-.81.707 0 1.237.23 1.59.69.354.453.53 1.01.53 1.67 0 .4-.076.813-.23 1.24-.153.427-.403.897-.75 1.41-.34.507-.803 1.093-1.39 1.76l-6.53 6.88v3.13h14.25z" style="fill:#0bd0af"/></svg>

<?xml version="1.0" encoding="utf-8"?>
<svg width="50" height="50" xmlns="http://www.w3.org/2000/svg">
  <path d="M 50 25 C 50 38.807 38.807 50 25 50 C 11.193 50 0 38.807 0 25 C 0 11.193 11.193 0 25 0 C 38.807 0 50 11.193 50 25 Z M 23.718 22.833 L 9.168 22.833 L 9.168 26.323 L 23.718 26.323 Z M 18.888 28.443 L 14.018 28.443 L 14.018 31.953 L 18.888 31.953 Z M 18.888 17.283 L 14.018 17.283 L 14.018 20.773 L 18.888 20.773 Z M 39.329 28.703 L 35.669 28.703 L 35.469 30.393 L 31.439 30.393 L 31.419 30.323 L 34.479 27.083 C 35.553 25.95 36.413 24.983 37.059 24.183 C 37.706 23.39 38.169 22.64 38.449 21.933 C 38.736 21.233 38.879 20.466 38.879 19.633 C 38.879 18.406 38.596 17.336 38.029 16.423 C 37.469 15.51 36.669 14.8 35.629 14.293 C 34.583 13.793 33.333 13.543 31.879 13.543 C 30.419 13.543 29.153 13.84 28.079 14.433 C 26.999 15.026 26.176 15.826 25.609 16.833 C 25.036 17.846 24.763 18.98 24.789 20.233 L 24.819 20.313 L 29.589 20.313 C 29.589 19.4 29.776 18.67 30.149 18.123 C 30.523 17.583 31.093 17.313 31.859 17.313 C 32.566 17.313 33.096 17.543 33.449 18.003 C 33.803 18.456 33.979 19.013 33.979 19.673 C 33.979 20.073 33.903 20.486 33.749 20.913 C 33.596 21.34 33.346 21.81 32.999 22.323 C 32.659 22.83 32.196 23.416 31.609 24.083 L 25.079 30.963 L 25.079 34.093 L 39.329 34.093 Z" style="fill: rgb(11, 208, 175);"/>
</svg>
